web/themes/custom/nys/images/icons/briefcase.svg

<svg xmlns="http://www.w3.org/2000/svg" width="16" height="15" viewBox="0 0 16 15" fill="none">
  <path d="M5.75 1.5H10.25C10.3875 1.5 10.5 1.6125 10.5 1.75V3H5.5V1.75C5.5 1.6125 5.6125 1.5 5.75 1.5ZM4 1.75V3H2C0.896875 3 0 3.89687 0 5V8H16V5C16 3.89687 15.1031 3 14 3H12V1.75C12 0.784375 11.2156 0 10.25 0H5.75C4.78438 0 4 0.784375 4 1.75ZM16 9H10V10C10 10.5531 9.55313 11 9 11H7C6.44688 11 6 10.5531 6 10V9H0V13C0 14.1031 0.896875 15 2 15H14C15.1031 15 16 14.1031 16 13V9Z" fill="currentColor"/>
</svg>

<svg width="16" height="16" viewBox="0 0 16 16" fill="none" xmlns="http://www.w3.org/2000/svg"><path d="M5.75 1.5h4.5a.25.25 0 01.25.25V3h-5V1.75a.25.25 0 01.25-.25zM4 1.75V3H2C.897 3 0 3.897 0 5v3h16V5c0-1.103-.897-2-2-2h-2V1.75A1.75 1.75 0 0010.25 0h-4.5A1.75 1.75 0 004 1.75zM16 9h-6v1a1 1 0 01-1 1H7a1 1 0 01-1-1V9H0v4c0 1.103.897 2 2 2h12c1.103 0 2-.897 2-2V9z"/></svg>
